X:1
T:Farrell O'Gara's Favorite -- Reel
R:reel
B:Ryan's Mammoth Collection
N: 370
Z: Contributed by Ray Davies,  ray:davies99.freeserve.co.uk
M:2/4
L:1/16
K:A
u(AF)|\
vEAAc BAaf | ecBd cAFA | EAAc BAaf | ecBc .A2(AF) |
EAAc BAaf | ecBd cAFA | EAAc BAaf | ecBc A2  :|
|:u((3efg)|\
{b}vagaf eac"4"e | dBcA {c}BAFA | {b}agaf "0"e"1"a"3"c'"1"a | \
{c'}"2"b"1"a"2"b"3"c' "1".a2(ab) |
"2"c'"1"a"1"f"3"a "0"eac"4"e | dBcA BAF"4"A | EAAc BAaf | \
ecBc A2 "_D.C." :|
